assets/icons/lock-fill.svg

<svg width="20" height="20" viewBox="0 0 20 20" fill="none" xmlns="http://www.w3.org/2000/svg">
<path d="M9.99961 2C11.0605 2 12.0779 2.42143 12.828 3.17157C13.5782 3.92172 13.9996 4.93913 13.9996 6V8.4C14.6361 8.4 15.2466 8.65286 15.6967 9.10294C16.1468 9.55303 16.3996 10.1635 16.3996 10.8V15.6C16.3996 16.2365 16.1468 16.847 15.6967 17.2971C15.2466 17.7471 14.6361 18 13.9996 18H5.99961C5.36309 18 4.75264 17.7471 4.30255 17.2971C3.85247 16.847 3.59961 16.2365 3.59961 15.6V10.8C3.59961 10.1635 3.85247 9.55303 4.30255 9.10294C4.75264 8.65286 5.36309 8.4 5.99961 8.4V6C5.99961 4.93913 6.42104 3.92172 7.17118 3.17157C7.92133 2.42143 8.93874 2 9.99961 2ZM9.99961 11.6C9.59595 11.5999 9.20716 11.7523 8.91117 12.0268C8.61519 12.3013 8.43388 12.6775 8.40361 13.08L8.39961 13.2C8.39961 13.5164 8.49345 13.8258 8.66926 14.0889C8.84507 14.352 9.09495 14.5571 9.38732 14.6782C9.67968 14.7993 10.0014 14.831 10.3118 14.7693C10.6221 14.7075 10.9072 14.5551 11.131 14.3314C11.3547 14.1076 11.5071 13.8225 11.5689 13.5121C11.6306 13.2018 11.5989 12.8801 11.4778 12.5877C11.3567 12.2953 11.1516 12.0455 10.8885 11.8696C10.6254 11.6938 10.3161 11.6 9.99961 11.6ZM9.99961 3.6C9.36309 3.6 8.75264 3.85286 8.30255 4.30294C7.85247 4.75303 7.59961 5.36348 7.59961 6V8.4H12.3996V6C12.3996 5.36348 12.1468 4.75303 11.6967 4.30294C11.2466 3.85286 10.6361 3.6 9.99961 3.6Z" fill="currentColor"/>
</svg>

<svg xmlns="http://www.w3.org/2000/svg" width="20" height="20" fill="none" viewBox="0 0 20 20"><path fill="currentColor" d="M10 2a4 4 0 0 1 4 4v2.4a2.4 2.4 0 0 1 2.4 2.4v4.8A2.4 2.4 0 0 1 14 18H6a2.4 2.4 0 0 1-2.4-2.4v-4.8A2.4 2.4 0 0 1 6 8.4V6a4 4 0 0 1 4-4m0 9.6a1.6 1.6 0 0 0-1.596 1.48l-.004.12a1.6 1.6 0 1 0 1.6-1.6m0-8A2.4 2.4 0 0 0 7.6 6v2.4h4.8V6A2.4 2.4 0 0 0 10 3.6"/></svg>
